X: 29745
T: Nyth Y Gwcw
R: barndance
M: 4/4
K: Ddorian
E|FEFE D2 d2|A2 A2 A2 G2|FEFE D2 AB|c2 c2 c2 E2|
FEFE D2 d2|A2 A2 A2 G2|FEFE DEFG|A2 A2 d2 e2|
fefe d2 d'2|a2 a2 a2 g2|fefe d2 ab|c'2 c'2 c'2 e2|
fefe d2 d'2|a2 a2 a2 g2|fefe defg a2 a2 d'4||
|:defe d2 d2|cBAG A4|defg a2 a2|g2 d2 d4|
fefe d2 d2|cBAG A2 G2|FEFE DEFG|1 A2 A2 d4:|2 A2 A2 d2||

